src/icons/education.svg

<svg width="24" height="24" viewBox="0 0 24 24" fill="none" xmlns="http://www.w3.org/2000/svg">
<path d="M12 2L1.5 5L2 7L12 4L22 7L22.5 5L12 2Z" fill="black"/>
<path fill-rule="evenodd" clip-rule="evenodd" d="M4.38616 8.89077C5.66528 8.85488 7.27812 8.84743 8.18429 9.01734C9.07788 9.18489 10.1619 9.59697 10.9734 9.93823C11.3812 10.1097 11.7399 10.2718 12 10.3927C12.2601 10.2718 12.6188 10.1097 13.0266 9.93823C13.8381 9.59697 14.9221 9.18489 15.8157 9.01734C16.7219 8.84743 18.3347 8.85488 19.6138 8.89077C20.2764 8.90936 20.8882 8.93721 21.3341 8.96037C21.5572 8.97196 21.7393 8.98241 21.8659 8.98998L22.0127 8.99897L22.0517 9.00146L22.0657 9.00237C22.0658 9.00238 22.0659 9.00238 22 10.0002L22.0657 9.00237L23 9.06403V19.8915L22.0666 19.9992L21.9256 20.016C21.8029 20.0308 21.6255 20.0524 21.4074 20.0799C20.9711 20.135 20.3738 20.2134 19.7291 20.3068C18.4068 20.4984 16.9893 20.7388 16.2983 20.9547C15.5521 21.1879 14.5791 21.5522 13.7777 21.8649C13.3802 22.02 13.0308 22.16 12.7808 22.2613C12.6559 22.3119 12.556 22.3528 12.4876 22.3808L12.4094 22.413L12 22.5829L11.6153 22.4233L11.5906 22.413L11.5124 22.3808C11.444 22.3528 11.3441 22.3119 11.2192 22.2613C10.9692 22.16 10.6198 22.02 10.2223 21.8649C9.42095 21.5522 8.44787 21.1879 7.70173 20.9547C7.01073 20.7388 5.59317 20.4984 4.27087 20.3068C3.62617 20.2134 3.02891 20.135 2.59256 20.0799C2.37455 20.0524 2.19709 20.0308 2.07443 20.016L1.93341 19.9992L1 19.8915V9.06403L1.93415 9.00238L2 10.0002C1.93415 9.00238 1.93407 9.00239 1.93415 9.00238L1.94835 9.00146L1.98729 8.99897L2.13407 8.98998C2.26074 8.98241 2.44281 8.97196 2.66595 8.96037C3.1118 8.93721 3.72365 8.90936 4.38616 8.89077ZM3 10.9461V18.1156C3.42616 18.1701 3.97212 18.2427 4.55756 18.3275C5.84473 18.5139 7.42717 18.7735 8.29827 19.0457C9.11423 19.3007 10.1411 19.6864 10.9493 20.0017L11 20.0215V12.134C10.7774 12.0322 10.502 11.9096 10.1982 11.7819C9.40024 11.4463 8.48422 11.1084 7.81571 10.9831C7.15978 10.8601 5.77263 10.8527 4.44226 10.89C3.90705 10.905 3.40445 10.9263 3 10.9461ZM13.0507 20.0017L13 20.0215V12.134C13.2226 12.0322 13.498 11.9096 13.8018 11.7819C14.5998 11.4463 15.5158 11.1084 16.1843 10.9831C16.8402 10.8601 18.2274 10.8527 19.5577 10.89C20.093 10.905 20.5956 10.9263 21 10.9461V18.1156C20.5738 18.1701 20.0279 18.2427 19.4424 18.3275C18.1553 18.5139 16.5728 18.7735 15.7017 19.0457C14.8858 19.3007 13.8589 19.6864 13.0507 20.0017Z" fill="black"/>
</svg>

<svg xmlns="http://www.w3.org/2000/svg" width="24" height="24" fill="none"><path fill="currentColor" d="M12 2 1.5 5 2 7l10-3 10 3 .5-2z"/><path fill="currentColor" fill-rule="evenodd" d="M4.386 8.89c1.28-.035 2.892-.043 3.798.127.894.168 1.978.58 2.79.921.407.172.766.334 1.026.455.26-.121.619-.283 1.027-.455.811-.341 1.895-.753 2.789-.92.906-.17 2.519-.163 3.798-.127a74 74 0 0 1 2.252.099l.147.009.039.002.014.001L22 10l.066-.998.934.062v10.828l-.933.107-.141.017a96 96 0 0 0-2.197.29c-1.322.192-2.74.433-3.43.649a43 43 0 0 0-2.521.91c-.398.155-.747.295-.997.396l-.293.12-.079.032-.409.17-.385-.16-.024-.01-.079-.032q-.104-.044-.293-.12c-.25-.101-.6-.241-.997-.396a43 43 0 0 0-2.52-.91c-.691-.216-2.109-.457-3.431-.648a94 94 0 0 0-2.197-.291l-.14-.017L1 19.892V9.064l.934-.062L2 10l-.066-.998h.014l.04-.003.146-.009a69 69 0 0 1 2.252-.1M3 10.947v7.17c.426.054.972.127 1.558.212 1.287.186 2.87.445 3.74.718.816.255 1.843.64 2.651.956l.051.02v-7.888a29 29 0 0 0-.802-.352c-.798-.336-1.714-.674-2.382-.799-.656-.123-2.043-.13-3.374-.093-.535.015-1.038.036-1.442.056m10.05 9.056-.05.02v-7.888c.223-.102.498-.224.802-.352.798-.336 1.714-.674 2.382-.799.656-.123 2.043-.13 3.374-.093.535.015 1.038.036 1.442.056v7.17c-.426.054-.972.127-1.558.212-1.287.186-2.87.445-3.74.718a44 44 0 0 0-2.651.956" clip-rule="evenodd"/></svg>
